src/lib/packages/icons/src/assets/line/food-tray.svg

<svg xmlns="http://www.w3.org/2000/svg" width="24" height="24" fill="none"><path fill="currentColor" d="M21 16.25h-.35c.06-.42.1-.83.1-1.25 0-4.13-2.88-7.6-6.74-8.51.15-.3.24-.63.24-.99 0-1.24-1.01-2.25-2.25-2.25S9.75 4.26 9.75 5.5c0 .36.09.69.24.99-3.86.91-6.74 4.38-6.74 8.51 0 .42.04.83.1 1.25H3c-.41 0-.75.34-.75.75v1.5c0 1.24 1.01 2.25 2.25 2.25h15c1.24 0 2.25-1.01 2.25-2.25V17c0-.41-.34-.75-.75-.75ZM11.25 5.5c0-.41.34-.75.75-.75s.75.34.75.75-.34.75-.75.75-.75-.34-.75-.75ZM4.75 15C4.75 11 8 7.75 12 7.75S19.25 11 19.25 15c0 .41-.05.83-.12 1.25H4.87A7.66 7.66 0 0 1 4.75 15Zm15.5 3.5c0 .41-.34.75-.75.75h-15c-.41 0-.75-.34-.75-.75v-.75h16.5v.75Zm-3.54-6.9a.747.747 0 0 1-.63 1.14c-.25 0-.5-.13-.64-.35-.52-.83-1.5-1.47-2.56-1.66a.75.75 0 0 1-.61-.87.75.75 0 0 1 .87-.61c1.49.26 2.83 1.14 3.58 2.34l-.01.01Z"/></svg>

<svg width="24" height="24" viewBox="0 0 24 24" fill="none" xmlns="http://www.w3.org/2000/svg">
<path d="M21 16.25H20.65C20.71 15.83 20.75 15.42 20.75 15C20.75 10.87 17.87 7.40001 14.01 6.49001C14.16 6.19001 14.25 5.86 14.25 5.5C14.25 4.26 13.24 3.25 12 3.25C10.76 3.25 9.75 4.26 9.75 5.5C9.75 5.86 9.84001 6.19001 9.99001 6.49001C6.13001 7.40001 3.25 10.87 3.25 15C3.25 15.42 3.29001 15.83 3.35001 16.25H3C2.59 16.25 2.25 16.59 2.25 17V18.5C2.25 19.74 3.26 20.75 4.5 20.75H19.5C20.74 20.75 21.75 19.74 21.75 18.5V17C21.75 16.59 21.41 16.25 21 16.25ZM11.25 5.5C11.25 5.09 11.59 4.75 12 4.75C12.41 4.75 12.75 5.09 12.75 5.5C12.75 5.91 12.41 6.25 12 6.25C11.59 6.25 11.25 5.91 11.25 5.5ZM4.75 15C4.75 11 8 7.75 12 7.75C16 7.75 19.25 11 19.25 15C19.25 15.41 19.2 15.83 19.13 16.25H4.87C4.8 15.83 4.75 15.41 4.75 15ZM20.25 18.5C20.25 18.91 19.91 19.25 19.5 19.25H4.5C4.09 19.25 3.75 18.91 3.75 18.5V17.75H20.25V18.5ZM16.71 11.6C16.93 11.95 16.82 12.41 16.47 12.63C16.35 12.71 16.21 12.74 16.08 12.74C15.83 12.74 15.58 12.61 15.44 12.39C14.92 11.56 13.94 10.92 12.88 10.73C12.47 10.66 12.2 10.27 12.27 9.86C12.34 9.45 12.73 9.18 13.14 9.25C14.63 9.51 15.97 10.39 16.72 11.59L16.71 11.6Z" fill="currentColor"/>
</svg>
